X:183
%%topspace -50
T:The Girl I Left Behind Me
M:2/4
L:1/8
K:G
g/2f/2 | "C"ed/2c/2 "D7"BA | "G"BG "C"E3/F/ | "G"GG G/A/B/c/ | "D7"d2 "G"Bg/2f/2 | 
"C"ed/c/ "D7"BA | "G"BG "C"EF/G/ | "D"FA DE/F/ | "G"G2 G :|
|: A | "G"Bd "C"ef | "G"gd BA/G/ | "G"Bd "C"ef | "G"g2 "Bm"fg/f/ | 
"C"ed/c/ "D7"BA | "G"BG "C"E3/G/ | "D"FA DE/F/ | "G"G2 G :|

